src/svgs/image.svg

<?xml version="1.0" encoding="utf-8"?>
<!-- Generated by IcoMoon.io -->
<!DOCTYPE svg PUBLIC "-//W3C//DTD SVG 1.1//EN" "http://www.w3.org/Graphics/SVG/1.1/DTD/svg11.dtd">
<svg version="1.1" xmlns="http://www.w3.org/2000/svg" xmlns:xlink="http://www.w3.org/1999/xlink" width="32" height="32" viewBox="0 0 32 32">
<path d="M1.067 28.133h29.867c0.533 0 1-0.467 1-1v-20.933c0-0.533-0.467-1-1-1h-29.867c-0.533 0-1 0.467-1 1v20.933c0 0.533 0.467 1 1 1zM2.067 26.133v-1.533l9.933-9 5.333 5.333c0.2 0.2 0.467 0.267 0.8 0.267s0.533-0.133 0.733-0.4l2.333-3.133 8.733 7.933v0.533h-27.867zM29.933 7.2v15.667l-8.333-7.467c-0.2-0.2-0.467-0.267-0.733-0.267-0.267 0.067-0.533 0.133-0.667 0.4l-2.333 3.133-5.2-5.2c-0.4-0.4-1-0.4-1.4-0.067l-9.2 8.467v-14.667h27.867zM25.467 15.2c1.933 0 3.467-1.533 3.467-3.467s-1.533-3.467-3.467-3.467c-1.933 0-3.467 1.533-3.467 3.467s1.533 3.467 3.467 3.467zM25.467 10.2c0.867 0 1.467 0.667 1.467 1.467s-0.667 1.467-1.467 1.467c-0.867 0-1.467-0.667-1.467-1.467s0.6-1.467 1.467-1.467z"></path>
</svg>

<svg xmlns="http://www.w3.org/2000/svg" width="32" height="32" viewBox="0 0 32 32">
    <path d="M1.067 28.133h29.867c.533 0 1-.467 1-1V6.2c0-.533-.467-1-1-1H1.067c-.533 0-1 .467-1 1v20.933c0 .533.467 1 1 1zm1-2V24.6l9.933-9 5.333 5.333c.2.2.467.267.8.267s.533-.133.733-.4l2.333-3.133 8.733 7.933v.533H2.065zM29.933 7.2v15.667L21.6 15.4c-.2-.2-.467-.267-.733-.267-.267.067-.533.133-.667.4l-2.333 3.133-5.2-5.2c-.4-.4-1-.4-1.4-.067l-9.2 8.467V7.199h27.867zm-4.466 8c1.933 0 3.467-1.533 3.467-3.467s-1.533-3.467-3.467-3.467C23.534 8.266 22 9.799 22 11.733s1.533 3.467 3.467 3.467zm0-5c.867 0 1.467.667 1.467 1.467s-.667 1.467-1.467 1.467c-.867 0-1.467-.667-1.467-1.467s.6-1.467 1.467-1.467z"/>
</svg>
